X:1240
T:Czech Bagpipe tune
M:6/8
O:Czechoslovakia
R:Jig
Z:Richard Robinson 
%%TUNEURL: http://www.leeds.ac.uk/music/Info/RRTuneBk/gettune/00000d1c.html
%%ID:00000d1c
K:G
G2G ABc | d2d edc | B2G c2A | d2d cBA |\
G2G ABc | d2d edc | B2G A2F | G3 G3 ::
A2A BAd | A2A GFD | G2D A2D | B2d cBA |\
G2G ABc | d2d edc | B2G A2F | G3 G3 :|
